public/avatar/body/170.svg

<svg xmlns:xlink="http://www.w3.org/1999/xlink" height="82" width="84.85" xmlns="http://www.w3.org/2000/svg"><g transform="translate(37.4 42.25)"><use height="38" transform="translate(-11.95 -17.45)" width="32.05" xlink:href="#a"/><use height="38.95" transform="translate(-12.45 -17.95)" width="33.05" xlink:href="#b"/><use height="25.65" transform="matrix(-1.0574 0 0 1 5.45 .15)" width="24.45" xlink:href="#c"/><use height="25.65" transform="translate(5 .1)" width="24.45" xlink:href="#c"/><use height="23.95" transform="translate(-16.65 -2.15)" width="42.8" xlink:href="#d"/></g><defs><use height="38" width="32.05" xlink:href="#e" id="a"/><use height="38.95" width="33.05" xlink:href="#f" id="b"/><use height="25.65" width="24.45" xlink:href="#g" id="c"/><path d="M27.35 7.4q2.15 4.15 3.55 8.75 1.45 4.7 1.15 9.5-.35 4.95-4.2 8.1-3.8 3.2-8.75 4.05l-2.6.2q-3.6 0-7.05-1.15-4.65-1.6-7.1-5.5Q-.2 27.4.05 23q.2-4.4 2-9.3Q3.85 8.75 7 5.05 10.1 1.3 14.7.1l1.8-.1q1.9.05 3.7.8 4.75 2.05 7.15 6.6" fill="#e69944" fill-rule="evenodd" transform="translate(-.05)" id="e"/><path d="M27.35 7.4Q24.95 2.85 20.2.8 17.55-.3 14.7.1 10.1 1.3 7 5.05q-3.15 3.7-4.95 8.65-1.8 4.9-2 9.3-.25 4.4 2.3 8.35 2.45 3.9 7.1 5.5 4.65 1.55 9.65.95 4.95-.85 8.75-4.05 3.85-3.15 4.2-8.1.3-4.8-1.15-9.5-1.4-4.6-3.55-8.75Z" fill="none" stroke="#1e1e1e" stroke-linecap="round" stroke-linejoin="round" transform="translate(.45 .5)" id="f"/><g id="g" fill-rule="evenodd"><path d="m1.45-12.15.5-.65.75.5q3.1 2.2 6.15 8.5Q12 2.65 12.25 7.7V8l-.15.2Q9.65 11.35 8.7 12l-1.25.85-.2-1.5-.5-1.8q-.7-1.85-2-1.5-.4.15-1.25.85-2.8 2.2-5.85 2.15-2.6 0-4.65-1.35-.55-.4-.85-.4L-9 9.7q-1.7.7-3.2.75V-.05l1.15-.7q8.25-5.65 12.5-11.4" fill="#0d0129" transform="translate(12.2 12.8)"/><path d="M2.05-11.95q2.9 2.05 5.9 8.2Q11 2.55 11.25 7.5q-2.4 3.05-3.2 3.6L7.5 9.05q-1-2.7-3.2-2l-2.45 1.7Q0 10.05-2.45 10q-2.3-.05-3.7-.95-1.3-.85-1.85-.8-2.1 1.1-4.2 1.15V-1.05l1.35-.65q8.35-4.05 12.9-10.25" fill="#21235b" transform="translate(12.2 12.8)"/><path d="M8-3.75q3.05 6.3 3.3 11.25-2.4 3.05-3.2 3.6-1.9-9.3-6-23.05Q5-9.9 8-3.75" fill="#2d3090" transform="translate(12.2 12.8)"/><path d="m8.3-1.35-2.15-5.8 2.4 4.6Q11 2.95 11.35 7.5l-1 1.1q.1-3.5-2.05-9.95" fill="#4958c7" transform="translate(12.2 12.8)"/><path d="M7.9 10.65Q7.35 8.9 6.15 7.7q-.6-1.1-1.1-1.2-.9-.25-3.15 1.3-2.2 1.5-3.35 1.25Q5 6.75 4.55-1.1q1.5 2.55 3.35 11.75" fill="#0c0d38" transform="translate(12.2 12.8)"/></g><g id="d" fill-rule="evenodd"><path d="m19.05-.25 4.05.7 3.05 1q-1.75 2.7-4.05 5.2l-1.45 1.5q.2 1.9-.25 3.75l-.55 1.85-.4.9-.85 1.65v-.05l-.75 1.05-2.25 2.3-.7.6-1.15.85-.5.35-1.45-.2-2.15.15-1.55.3-1.55.15H5l-7.9-.4q-4.25-1.6-6.5-4.9-2.85-4.2-2.3-9.2l-4.95-5.9 6.1-1.4.35-2.15 6.95 7.7Q.25 9 4.7 11l.3.1 3.05-1.95 2.9-2.3 1.8-1.55 1.7-1.65L16 1.95 17.45.2l1.35-1.8.25 1.35M20.2 1.5l.05 2.75-.35 3.9 1.4-1.8 2.2-3.1.75-1.3-4.2-.95.15.5m-2.95 7.6.05-.1 1.15-2.45.45-2.85-.05-3.25-.5.7-.85 1.1-.7.8-2.9 3.05-2.05 1.75-2.2 1.65-2.35 1.55-2.3 1.4q-2.8-.9-5.45-3l-1.6-1.2-4.45-4.2-1-1.05-.7-.75-1.4-1.8Q-9.65 5-8 8.95q.7 1.8 2.3 3L-2.25 14l-2.55 1.2-1.05.45-2.75 1.15 2.7 1.95 2.05 1.35.55.25 8.05-2.45.25-.05 5.1 1.5 1 .3 1.2.35.4.1.5.15 4.25-3.65-3.2-1.35-2.15-1-.55-.35.9-.4.6-.4 2.65-1.85 1.05-1.35-.05.15.55-.95M.6 20.3l4.4.35q.75-.1 1.35-.6l.3-.3-1.65-.7L.6 20.3M-10.95 2.35l.1-.45.2-.9-3.4.6-.8.35 2.25 3.5 2.1 2.7-.45-5.8M-5.2 14.7l-5.35-6.2q.35 3.25 2.15 6.15l.7 1.15 2.5-1.1" fill="#0d0129" transform="translate(16.65 2.15)"/><path d="M.6 20.3 5 19.05l1.65.7-.3.3q-.6.5-1.35.6L.6 20.3m-5.8-5.6-2.5 1.1-.7-1.15q-1.8-2.9-2.15-6.15l5.35 6.2" fill="#1f0f60" transform="translate(16.65 2.15)"/><path d="m20.2 1.5 3.15.7.2.2-.6 1.4.25-.3 1.05-1.55-.75 1.3-2.2 3.1-1.4 1.8.35-3.9-.05-2.75m-1.85-.35.5-.7.05 3.25-.45 2.85L17.3 9l-.05.1.35-.9q.65-1.85.75-3.85v-3.2m-1.6 8.75-1.05 1.35.45-2.15.35-2.15.3-3.9.7-.8v1.9L17.25 7l-.5 2.9m-4.3 3.6-.9.4.55.35-2 5.1-5.1-1.5-.25.05-8.05 2.45.85-.3L1.1 18.9l-2.25-6.8-.9-3.85 1.6 1.2q2.65 2.1 5.45 3l2.3-1.4L9.65 9.5l2.2-1.65L13.9 6.1l-.2 1.65-.7 3.65-.55 2.1m1.8 1.75 3.2 1.35-4.25 3.65 2.8-4.2-.65-.3-.3.65-2.35 3.7-.4-.1 1.95-4.75m-18.1 4.85-2.05-1.35-2.7-1.95 2.75-1.15 2 4.45m-1.85-8.15q-1.6-1.2-2.3-3Q-9.65 5-9.6.45l1.4 1.8.6 7.5 1.25 1.5.65.7M-10.85 1.9l.05-.55.15-.35-.2.9m-1.95 3 1 1.35-1.15-3.3 2-.6.45 5.8-2.1-2.7.35.4-.55-.95" fill="#e6cf1c" transform="translate(16.65 2.15)"/><path d="M24.25 1.95 23.2 3.5l-.25.3.6-1.4-.2-.2-3.15-.7-.15-.5 4.2.95M-3.3 20.35l-.55-.25-2-4.45 1.05-.45 1.85 5 .5-.15-.85.3m-4.9-18.1.7.75.7 6.05.45 2.2-1.25-1.5-.6-7.5m-2.6-.9-3 1.3 1 2.25.55.95-.35-.4-2.25-3.5.8-.35 3.4-.6-.15.35" fill="#ffffcf" transform="translate(16.65 2.15)"/><path d="m15.7 11.25-2.65 1.85-.6.4.55-2.1.7-3.65.2-1.65 2.9-3.05-.3 3.9-.35 2.15-.45 2.15m-3.6 3 2.15 1L12.3 20l-1.2-.35-1-.3 2-5.1m-16.9.95 2.55-1.2-3.45-2.05-.65-.7-.45-2.2L-7.5 3l1 1.05 4.45 4.2.9 3.85 2.25 6.8-3.55 1.15-.5.15-1.85-5m-6.05-13.3-.1.45-2 .6 1.15 3.3-1-1.35-1-2.25 3-1.3-.05.55" fill="#ffff1c" transform="translate(16.65 2.15)"/><path d="M18.35 1.15v3.2q-.1 2-.75 3.85l-.35.9-.55.95.05-.15.5-2.9.25-2.85v-1.9l.85-1.1m-5.15 19.1-.5-.15 2.35-3.7.3-.65.65.3-2.8 4.2" fill="#cd7c00" transform="translate(16.65 2.15)"/></g></defs></svg>

<?xml version="1.0" encoding="UTF-8" standalone="no"?>
<svg xmlns:xlink="http://www.w3.org/1999/xlink" height="82.0px" width="84.85px" xmlns="http://www.w3.org/2000/svg">
  <g transform="matrix(1.0, 0.0, 0.0, 1.0, 37.4, 42.25)">
    <use height="38.0" transform="matrix(1.0, 0.0, 0.0, 1.0, -11.95, -17.45)" width="32.05" xlink:href="#sprite0"/>
    <use height="38.95" transform="matrix(1.0, 0.0, 0.0, 1.0, -12.45, -17.95)" width="33.05" xlink:href="#sprite1"/>
    <use height="25.65" transform="matrix(-1.0574, 0.0, 0.0, 1.0, 5.45, 0.15)" width="24.45" xlink:href="#sprite2"/>
    <use height="25.65" transform="matrix(1.0, 0.0, 0.0, 1.0, 5.0, 0.1)" width="24.45" xlink:href="#sprite2"/>
    <use height="23.95" transform="matrix(1.0, 0.0, 0.0, 1.0, -16.65, -2.15)" width="42.8" xlink:href="#shape3"/>
  </g>
  <defs>
    <g id="sprite0" transform="matrix(1.0, 0.0, 0.0, 1.0, -0.05, 0.0)">
      <use height="38.0" transform="matrix(1.0, 0.0, 0.0, 1.0, 0.05, 0.0)" width="32.05" xlink:href="#shape0"/>
    </g>
    <g id="shape0" transform="matrix(1.0, 0.0, 0.0, 1.0, -0.05, 0.0)">
      <path d="M27.35 7.4 Q29.5 11.55 30.9 16.15 32.35 20.85 32.05 25.65 31.7 30.6 27.85 33.75 24.05 36.95 19.1 37.8 L16.5 38.0 Q12.9 38.0 9.45 36.85 4.8 35.25 2.35 31.35 -0.2 27.4 0.05 23.0 0.25 18.6 2.05 13.7 3.85 8.75 7.0 5.05 10.1 1.3 14.7 0.1 L16.5 0.0 Q18.4 0.05 20.2 0.8 24.95 2.85 27.35 7.4" fill="#e69944" fill-rule="evenodd" stroke="none"/>
    </g>
    <g id="sprite1" transform="matrix(1.0, 0.0, 0.0, 1.0, 0.45, 0.5)">
      <use height="38.95" transform="matrix(1.0, 0.0, 0.0, 1.0, -0.45, -0.5)" width="33.05" xlink:href="#shape1"/>
    </g>
    <g id="shape1" transform="matrix(1.0, 0.0, 0.0, 1.0, 0.45, 0.5)">
      <path d="M27.35 7.4 Q24.95 2.85 20.2 0.8 17.55 -0.3 14.7 0.1 10.1 1.3 7.0 5.05 3.85 8.75 2.05 13.7 0.25 18.6 0.05 23.0 -0.2 27.4 2.35 31.35 4.8 35.25 9.45 36.85 14.1 38.4 19.1 37.8 24.05 36.95 27.85 33.75 31.7 30.6 32.05 25.65 32.35 20.85 30.9 16.15 29.5 11.55 27.35 7.4 Z" fill="none" stroke="#1e1e1e" stroke-linecap="round" stroke-linejoin="round" stroke-width="1.0"/>
    </g>
    <g id="sprite2" transform="matrix(1.0, 0.0, 0.0, 1.0, 12.2, 12.8)">
      <use height="25.65" transform="matrix(1.0, 0.0, 0.0, 1.0, -12.2, -12.8)" width="24.45" xlink:href="#shape2"/>
    </g>
    <g id="shape2" transform="matrix(1.0, 0.0, 0.0, 1.0, 12.2, 12.8)">
      <path d="M1.45 -12.15 L1.95 -12.8 2.7 -12.3 Q5.8 -10.1 8.85 -3.8 12.0 2.65 12.25 7.7 L12.25 8.0 12.1 8.2 Q9.65 11.35 8.7 12.0 L7.45 12.85 7.25 11.35 6.75 9.55 Q6.05 7.7 4.75 8.05 4.35 8.2 3.5 8.9 0.7 11.1 -2.35 11.05 -4.95 11.05 -7.0 9.7 -7.55 9.3 -7.85 9.3 L-9.0 9.7 Q-10.7 10.4 -12.2 10.45 L-12.2 -0.05 -11.05 -0.75 Q-2.8 -6.4 1.45 -12.15" fill="#0d0129" fill-rule="evenodd" stroke="none"/>
      <path d="M2.05 -11.95 Q4.95 -9.9 7.95 -3.75 11.0 2.55 11.25 7.5 8.85 10.55 8.05 11.1 L7.5 9.05 Q6.5 6.35 4.3 7.05 L1.85 8.75 Q0.0 10.05 -2.45 10.0 -4.75 9.95 -6.15 9.05 -7.45 8.2 -8.0 8.25 -10.1 9.35 -12.2 9.4 L-12.2 -1.05 -10.85 -1.7 Q-2.5 -5.75 2.05 -11.95" fill="#21235b" fill-rule="evenodd" stroke="none"/>
      <path d="M8.0 -3.75 Q11.05 2.55 11.3 7.5 8.9 10.55 8.1 11.1 6.2 1.8 2.1 -11.95 5.0 -9.9 8.0 -3.75" fill="#2d3090" fill-rule="evenodd" stroke="none"/>
      <path d="M8.3 -1.35 L6.15 -7.15 8.55 -2.55 Q11.0 2.95 11.35 7.5 L10.35 8.6 Q10.45 5.1 8.3 -1.35" fill="#4958c7" fill-rule="evenodd" stroke="none"/>
      <path d="M7.9 10.65 Q7.35 8.9 6.15 7.7 5.55 6.6 5.05 6.5 4.15 6.25 1.9 7.8 -0.3 9.3 -1.45 9.05 5.0 6.75 4.55 -1.1 6.05 1.45 7.9 10.65" fill="#0c0d38" fill-rule="evenodd" stroke="none"/>
    </g>
    <g id="shape3" transform="matrix(1.0, 0.0, 0.0, 1.0, 16.65, 2.15)">
      <path d="M19.05 -0.25 L23.1 0.45 26.15 1.45 Q24.4 4.15 22.1 6.65 L20.65 8.15 Q20.85 10.05 20.4 11.9 L19.85 13.75 19.45 14.65 18.6 16.3 18.6 16.25 17.85 17.3 15.6 19.6 14.9 20.2 13.75 21.05 13.25 21.4 11.8 21.2 9.65 21.35 8.1 21.65 6.55 21.8 5.0 21.8 -2.9 21.4 Q-7.15 19.8 -9.4 16.5 -12.25 12.3 -11.7 7.3 L-16.65 1.4 -10.55 0.0 -10.2 -2.15 -3.25 5.55 Q0.25 9.0 4.7 11.0 L5.0 11.1 8.05 9.15 10.95 6.85 12.75 5.3 14.45 3.65 16.0 1.95 17.45 0.2 18.8 -1.6 19.05 -0.25 M20.2 1.5 L20.25 4.25 19.9 8.15 21.3 6.35 23.5 3.25 24.25 1.95 20.05 1.0 20.2 1.5 M17.25 9.1 L17.3 9.0 18.45 6.55 18.9 3.7 18.85 0.45 18.35 1.15 17.5 2.25 16.8 3.05 13.9 6.1 11.85 7.85 9.65 9.5 7.3 11.05 5.0 12.45 Q2.2 11.55 -0.45 9.45 L-2.05 8.25 -6.5 4.05 -7.5 3.0 -8.2 2.25 -9.6 0.45 Q-9.65 5.0 -8.0 8.95 -7.3 10.75 -5.7 11.95 L-2.25 14.0 -4.8 15.2 -5.85 15.65 -8.6 16.8 -5.9 18.75 -3.85 20.1 -3.3 20.35 4.75 17.9 5.0 17.85 10.1 19.35 11.1 19.65 12.3 20.0 12.7 20.1 13.2 20.25 17.45 16.6 14.25 15.25 12.1 14.25 11.55 13.9 12.45 13.5 13.05 13.1 15.7 11.25 16.75 9.9 16.7 10.05 17.25 9.1 M0.6 20.3 L5.0 20.65 Q5.75 20.55 6.35 20.05 L6.65 19.75 5.0 19.05 0.6 20.3 M-10.95 2.35 L-10.85 1.9 -10.65 1.0 -14.05 1.6 -14.85 1.95 -12.6 5.45 -10.5 8.15 -10.95 2.35 M-5.2 14.7 L-10.55 8.5 Q-10.2 11.75 -8.4 14.65 L-7.7 15.8 -5.2 14.7" fill="#0d0129" fill-rule="evenodd" stroke="none"/>
      <path d="M0.6 20.3 L5.0 19.05 6.65 19.75 6.35 20.05 Q5.75 20.55 5.0 20.65 L0.6 20.3 M-5.2 14.7 L-7.7 15.8 -8.4 14.65 Q-10.2 11.75 -10.55 8.5 L-5.2 14.7" fill="#1f0f60" fill-rule="evenodd" stroke="none"/>
      <path d="M20.2 1.5 L23.35 2.2 23.55 2.4 22.95 3.8 23.2 3.5 24.25 1.95 23.5 3.25 21.3 6.35 19.9 8.15 20.25 4.25 20.2 1.5 M18.35 1.15 L18.85 0.45 18.9 3.7 18.45 6.55 17.3 9.0 17.25 9.1 17.6 8.2 Q18.25 6.35 18.35 4.35 L18.35 1.15 M16.75 9.9 L15.7 11.25 16.15 9.1 16.5 6.95 16.8 3.05 17.5 2.25 17.5 4.15 17.25 7.0 16.75 9.9 M12.45 13.5 L11.55 13.9 12.1 14.25 10.1 19.35 5.0 17.85 4.75 17.9 -3.3 20.35 -2.45 20.05 1.1 18.9 -1.15 12.1 -2.05 8.25 -0.45 9.45 Q2.2 11.55 5.0 12.45 L7.3 11.05 9.65 9.5 11.85 7.85 13.9 6.1 13.7 7.75 13.0 11.4 12.45 13.5 M14.25 15.25 L17.45 16.6 13.2 20.25 16.0 16.05 15.35 15.75 15.05 16.4 12.7 20.1 12.3 20.0 14.25 15.25 M-3.85 20.1 L-5.9 18.75 -8.6 16.8 -5.85 15.65 -3.85 20.1 M-5.7 11.95 Q-7.3 10.75 -8.0 8.95 -9.65 5.0 -9.6 0.45 L-8.2 2.25 -7.6 9.75 -6.35 11.25 -5.7 11.95 M-10.85 1.9 L-10.8 1.35 -10.65 1.0 -10.85 1.9 M-12.8 4.9 L-11.8 6.25 -12.95 2.95 -10.95 2.35 -10.5 8.15 -12.6 5.45 -12.25 5.85 -12.8 4.9" fill="#e6cf1c" fill-rule="evenodd" stroke="none"/>
      <path d="M24.25 1.95 L23.2 3.5 22.95 3.8 23.55 2.4 23.35 2.2 20.2 1.5 20.05 1.0 24.25 1.95 M-3.3 20.35 L-3.85 20.1 -5.85 15.65 -4.8 15.2 -2.95 20.2 -2.45 20.05 -3.3 20.35 M-8.2 2.25 L-7.5 3.0 -6.8 9.05 -6.35 11.25 -7.6 9.75 -8.2 2.25 M-10.8 1.35 L-13.8 2.65 -12.8 4.9 -12.25 5.85 -12.6 5.45 -14.85 1.95 -14.05 1.6 -10.65 1.0 -10.8 1.35" fill="#ffffcf" fill-rule="evenodd" stroke="none"/>
      <path d="M15.7 11.25 L13.05 13.1 12.45 13.5 13.0 11.4 13.7 7.75 13.9 6.1 16.8 3.05 16.5 6.95 16.15 9.1 15.7 11.25 M12.1 14.25 L14.25 15.25 12.3 20.0 11.1 19.65 10.1 19.35 12.1 14.25 M-4.8 15.2 L-2.25 14.0 -5.7 11.95 -6.35 11.25 -6.8 9.05 -7.5 3.0 -6.5 4.05 -2.05 8.25 -1.15 12.1 1.1 18.9 -2.45 20.05 -2.95 20.2 -4.8 15.2 M-10.85 1.9 L-10.95 2.35 -12.95 2.95 -11.8 6.25 -12.8 4.9 -13.8 2.65 -10.8 1.35 -10.85 1.9" fill="#ffff1c" fill-rule="evenodd" stroke="none"/>
      <path d="M18.35 1.15 L18.35 4.35 Q18.25 6.35 17.6 8.2 L17.25 9.1 16.7 10.05 16.75 9.9 17.25 7.0 17.5 4.15 17.5 2.25 18.35 1.15 M13.2 20.25 L12.7 20.1 15.05 16.4 15.35 15.75 16.0 16.05 13.2 20.25" fill="#cd7c00" fill-rule="evenodd" stroke="none"/>
    </g>
  </defs>
</svg>
